X:164
U: ~ = !turn!
%%topmargin 3cm
T:Perthshire Hunt
B:Traditional Irish Fiddle Tunes. Randy Miller and Jack Perron.
Z:Transcribed by Ralph Palmer
S:Michael Coleman
R:Reel
L:1/8
M:C|
K:D
dB | ((3ABA) FA DAFA | DAFA BE PE2 | ((3ABA) FA DAFA | ABde fd{/e}dB |
((3ABA) FA DAFA | DAFA BE PE2 | ((3ABA) FA DAFA | ABde fd ::
de | fa{/b}ag a3 f | gfed cdeg | fa{/b}ag a2 ga | bgeg fddf |
((3aba) ((3gab) a3 f | gfed cdeg | fg ((3agf) ga ((3bag) | ((3fga) eg fd :|]
